X:1
T:Title
%%score ( 1 2 ) 3
L:1/8
Q:1/4=97
M:4/4
K:A
V:1 treble nm="Grand Piano, Soprano"
V:2 treble 
V:3 bass nm="Choir Pad, The Kingdom Shall Stand"
V:1
 (3EFG A2 [CA]>[CA] [CA]2 | (3[A,C][B,D][CE] [DF]2 [DF]>[DF] [DF]2 | %2
w: By~James~Henry~Fillmore * * * * * *||
 (3[F-d][Fc][FB] [EA]2 [EA]>[EA] [DG]2 | [DF]>[DG] [CA]6 | (3EF[DG] [CA]2 [CA]>[CA] [CA]2 | %5
w: |||
 (3[A,C][B,D][CE] [DF]2 [DF]>[DF] [DF]2 | (3[F-d][Fc][FB] [EA]2 [EA]>[EA] [DG]2 | [DF]>[DG] [CA]6 | %8
w: |||
 [EG]>[FA] [GB]6 | [CA]>[EB] [Ac]6 | [GB]>[Ac] [Bd]E- E/ z/ [Bd] [Ac]E- | E[Ac][GB]E- E3/2 z/ z2 | %12
w: ||||
 z2 A6 | (3Bc[Ad] d2- [Fd-]>[Fd-] [Fd]2 | F2 z2 z4 | z2 A6 | z8 |] %17
w: |||||
V:2
 x8 | x8 | x8 | x8 | x8 | x8 | x8 | x8 | x8 | x8 | x8 | x8 | (3EF[DG] C2 E>E E2 | z2 F2 z4 | %14
 (3Bcd [Ec]E- E/ z/ [Ac] [GB]E- | E[DB]CC D2 C2- | C6 z2 |] %17
V:3
 (3E,F,G, A,2 [A,,E,]>[A,,E,] [A,,E,]2 | (3:2:2[A,,E,]2 [A,,A,] [D,A,]2 [D,A,]>[D,A,] [D,A,]2 | %2
 (3:2:2[D,A,]2 [D,B,] [E,C]2 [E,C]>[E,C] [E,B,]2 | [E,B,]>[E,B,] [A,,A,]6 | %4
 (3:2:2E,2 E, [A,,E,]2 [A,,E,]>[A,,E,] [A,,E,]2 | %5
 (3:2:2[A,,E,]2 [A,,A,] [D,A,]2 [D,A,]>[D,A,] [D,A,]2 | %6
 (3:2:2[D,A,]2 [D,B,] [E,C]2 [E,C]>[E,C] [E,B,]2 | [E,B,]>[E,B,] [A,,A,]6 | z4 [E,E]>[E,E] [E,E]2 | %9
 z4 [A,E]>[A,E] [A,E]2 | [E,B,]>A, [E,G,]E,- E,/ z/ [E,G,] [E,A,]E,- | E,E,E,E, E,>E, E,D, | %12
 (3:2:2[C,E,]2 [B,,E,] [A,,E,]2 [A,C]>[A,C] [A,C]2 | %13
 (3:2:2[A,C]2 A, [D,A,]2 [D,A,]>[D,A,] [D,A,]2 | [D,A,]2 [E,A,]E,- E,/ z/ E, E,E,- | %15
 E,[E,G,][A,,E,A,][D,F,]- [D,F,] [A,,E,]3- | [A,,E,]4 z4 |] %17

